src/lib/packages/icons/src/assets/line/caret-up-square.svg

<svg width="24" height="24" viewBox="0 0 24 24" fill="none" xmlns="http://www.w3.org/2000/svg">
<path d="M17.625 2.25H6.375C3.715 2.25 2.25 3.715 2.25 6.375V17.625C2.25 20.285 3.715 21.75 6.375 21.75H17.625C20.285 21.75 21.75 20.285 21.75 17.625V6.375C21.75 3.715 20.285 2.25 17.625 2.25ZM20.25 17.625C20.25 19.465 19.465 20.25 17.625 20.25H6.375C4.535 20.25 3.75 19.465 3.75 17.625V6.375C3.75 4.535 4.535 3.75 6.375 3.75H17.625C19.465 3.75 20.25 4.535 20.25 6.375V17.625ZM13.4409 8.75195C12.7219 7.90195 11.2771 7.90195 10.5581 8.75195L7.63794 12.2141C7.22194 12.7081 7.13205 13.3779 7.40405 13.9629C7.67705 14.5509 8.25088 14.917 8.90088 14.917H15.0979C15.7479 14.917 16.322 14.5519 16.595 13.9629C16.866 13.3779 16.7771 12.7081 16.3611 12.2151L13.4409 8.75195ZM15.2351 13.3311C15.2091 13.3881 15.1629 13.416 15.0979 13.416H8.90088C8.83688 13.416 8.79092 13.3871 8.76392 13.3311C8.72692 13.2501 8.76991 13.1989 8.78491 13.1819L11.7051 9.71997C11.8061 9.60197 11.933 9.58398 12 9.58398C12.067 9.58398 12.1949 9.60197 12.2949 9.71997L15.2151 13.1831C15.2291 13.1991 15.2721 13.2501 15.2351 13.3311Z" fill="currentColor"/>
</svg>

<svg xmlns="http://www.w3.org/2000/svg" width="24" height="24" fill="none"><path fill="currentColor" d="M17.625 2.25H6.375c-2.66 0-4.125 1.465-4.125 4.125v11.25c0 2.66 1.465 4.125 4.125 4.125h11.25c2.66 0 4.125-1.465 4.125-4.125V6.375c0-2.66-1.465-4.125-4.125-4.125Zm2.625 15.375c0 1.84-.785 2.625-2.625 2.625H6.375c-1.84 0-2.625-.785-2.625-2.625V6.375c0-1.84.785-2.625 2.625-2.625h11.25c1.84 0 2.625.785 2.625 2.625v11.25Zm-6.81-8.873c-.718-.85-2.163-.85-2.882 0l-2.92 3.462a1.625 1.625 0 0 0-.234 1.749c.273.588.847.954 1.497.954h6.197c.65 0 1.224-.365 1.497-.954a1.625 1.625 0 0 0-.234-1.748l-2.92-3.463Zm1.795 4.58c-.026.056-.072.084-.137.084H8.9a.142.142 0 0 1-.137-.085.129.129 0 0 1 .02-.15l2.921-3.461A.384.384 0 0 1 12 9.584c.067 0 .195.018.295.136l2.92 3.463a.128.128 0 0 1 .02.148Z"/></svg>
